X:1
T:Ombra mai fu
T:Ombra mai fu
T:Opera "Serse (Xerxes)" Largo
T:G.F.Handel (Arr. D.Yanagimoto)
C:G.F.Handel
%%score { ( 1 2 ) | ( 3 4 5 6 ) }
L:1/8
Q:1/4=52
M:3/4
K:G
V:1 treble nm="Piano" snm="Pno."
V:2 treble 
V:3 bass 
V:4 bass 
V:5 bass 
V:6 bass 
V:1
!p!"^Largo" G6- | G2 F2 E>D | D6 | E2 F2 (3GAB |!<(! A6!<)! |!mf! e4 e>d |!>(! d6!>)! |!p! c4 c>B | %8
 B6 |!<(! g2 g2 f2!<)! |!mf! f2 e>d d2 | d^c c3 c | [Ad]3 e [Gd]2 |!>(! cB A3 G!>)! | %14
 !breath!G2 d4- |!p! d6- | d2 B2 A>G | G6- | G2 F2 E>D | D6 | E2 F2 (3GAB | %21
!<(! [FA]3 [EG] [FA]2!<)! |!mf! e2 e2 f2 | g3 d d2 |!>(! z e c3 B!>)! | B4!p! G2- | G2 F2 E>D | %27
!<(! D6!<)! |!mf! c2 c2 B2 |!<(! A3 G G2!<)! |!f! f2 f2 e2 | ^d>^c de e2 |!>(! z A F3 E!>)! | %33
[Q:1/4=46] !breath!E2!p![Q:1/4=52] c4- | c2 BA B2 |!<(! [FA]>[EG] [FA]2!f! e2-!<)! | e2 d2 c>[GB] | %37
!<(! [GB]4 c2!<)! |!ff! g2 g2 f2 | e3 d d2 | d^c c3 c | d3 e d2 | %42
[Q:1/4=48]"^rit." cB[Q:1/4=46] A3 f[Q:1/4=36] | !fermata!g4[Q:1/4=52]"^a Tempo"!p! [FA]2 | %44
 (3ABc B2 A>G |!<(! G6!<)! |!f! g2 g2 f2 | e3 d d2 | d^c c3 c | [Ad]3 [ce] [Bd]2 | %50
!mf![Q:1/4=48]"^rit."!>(! [Ac][GB][Q:1/4=32] A3[Q:1/4=28] G!>)! |!p! !fermata!G6 |] %52
V:2
 [B,D]2 [B,D]2 [B,D]2 | [A,C]2 [A,C]2 [F,C]2 | [G,B,]2 [G,B,]2 [G,B,]2 | [G,C]2 [A,C]2 B,D | %4
 [DF]2 [DF]2 [DF]2 | [FA]2 [FA]2 [FA]2 | [GB]2 [GB]2 [GB]2 | [CF]2 [CF]2 [CF]2 | %8
 [DG]2 [DG]2 [DG]2 | [Bd]2 [Ac]2 [Gd]2 | [Gc]4 [FA]2 | [EG]2 [EG]2 [EG]2 | F2 x4 | %13
 [EG]2 [DG]2 [DF]2 | [B,D]2 x4 | [DB]2 [DB]2 [DB]2 | [DF]2 [DF]2 [DF]2 | [B,E]2 [B,E]2 [B,E]2 | %18
 [B,D]2 [B,D]2 [G,C]2 | [G,B,]2 [G,B,]2 [G,B,]2 | [G,C]2 [A,C]2 B,D | D4 D2 | [FA]2 [FA]2 [Ad]2 | %23
 [Gd]2 G2 G2 | [EG]2 [EG]2 [DF]2 | [DG]2 [DG]2 [B,D]2 | [A,C]2 [A,C]2 [F,C]2 | %27
 [G,B,]2 [G,B,]2 [G,B,]2 | [EG]2 [DG]2 [DG]2 | [EG]2 [DF]2 [DG]2 | [Fc]2 [Ac]2 [EB]2 | %31
 [FA]2 [FA]2 [EG]2 | [CE]2 E2 ^D2 | B,4 [A,C]2 | [FA]2 [DG]2 [DG]2 | D2 D2 x2 | [FA]2 G2 F2 | %37
 D2 D2 F2 | [Bd]2 [Bd]2 [Bd]2 | [Gc]2 [Gc]2 [FA]2 | [EG]2 [EG]2 [EG]2 | [FA]2 [FA]2 [GB]2 | %42
 [EG]2 F3 [Ad] | [Gd]4 x2 | [EG]2 [DF-]2 [CF]2 | B,2 B,2 [DF]2 | [Gd]2 [Gd]2 [Fd]2 | %47
 [Gc]2 [Gc]2 [FA]2 | [EG]2 [EG]2 [EG]2 | D2 F2 G2 | E2 [A,D-][B,D] [A,F]2 | [B,D]6 |] %52
V:3
 G,,2 G,,2 G,,2 | A,,2 A,,2 A,,2 | B,,2 B,,2 B,,2 | C,B,, A,,2 G,,2 | D,2 D,2 D,2 | C,2 C,2 C,2 | %6
 B,,2 B,,2 B,,2 | A,,2 A,,2 A,,2 | G,,2 G,,2 G,,2 | G,,2 A,,2 B,,2 | C,2 C,2 D,2 | E,2 E,2 G,2 | %12
 D,2 F,2 G,2 | G,,F,, D,,2 D,2 | G,,,6- | G,,,6 | D,2 D,2 D,2 | E,2 E,2 E,2 | B,,2 B,,2 C,2 | %19
 G,,2 G,,2 G,,2 | C,B,, A,,2 G,,2 | D,2 D,2 D,2 | C,2 C,2 C,2 | B,,2 B,,2 B,,2 | C,2 A,,2 D,2 | %25
 G,,2 G,,2 G,,2 | A,,2 A,,2 A,,2 | B,,2 B,,2 [B,,,B,,]2 | [E,,,E,,]2 [F,,,F,,]2 [G,,,G,,]2 | %29
 C,2 C,2 B,,2 | A,,2 A,,2 C,2 | B,,2 A,,2 G,,2 | A,,2 B,2 B,,2 | E,6 | D,2 G,2 G,,2 | D,2 D,4 | %36
 C,2 B,,2 A,,2 | G,,2 G,,2 A,,2 | B,,2 B,,2 B,,2 | C,,2 C,2 D,2 | E,,2 E,2 E,2 | D,,2 C,2 B,,2 | %42
 C,2 D,2 D,,2 | !fermata![E,,,E,,]4 D,2 | C,2 D,2 D,,2 | G,,2 G,,2 A,,2 | B,,2 B,,2 B,,2 | %47
 C,,2 C,2 D,2 | E,,2 E,2 E,2 | F,2 D,2 G,2 | C,2 D,2 D,,2 | !fermata![G,,,G,,]6 |] %52
V:4
 G,,,6 | A,,,6 | B,,,6 | C,,4 G,,,2 | D,,6 | C,,6 | B,,,6 | A,,,6 | G,,,6 | G,,,2 A,,,2 B,,,2 | %10
 C,,4 D,,2 | E,,4 G,,2 | x6 | x6 | G,,2 z4 | G,2 G,2 G,2 | x6 | x4 E,,2 | B,,,4 C,,2 | G,,,6 | %20
 C,,4 G,,,2 | D,,6 | C,,6 | B,,,6 | C,,2 A,,,2 D,,2 | G,,,6 | x6 | x6 | x6 | C,,4 B,,,2 | %30
 A,,,3 B,,, C,,2 | B,,,2 A,,,2 G,,,2 | A,,,2 B,,2 B,,,2 | E,,6 | x6 | x6 | x6 | x4 A,,,2 | %38
 B,,,3 A,,, B,,,G,,, | x2 C,,2 x2 | x2 E,,2 x2 | D,,,2 C,,2 B,,,2 | C,,2 D,,2 D,,,2 | x6 | x6 | %45
 G,,,4 A,,,2 | B,,,3 A,,, B,,,G,,, | x2 C,,2 x2 | x2 E,,2 x2 | F,,2 D,,2 G,,2 | C,,2 D,,2 D,,,2 | %51
 x6 |] %52
V:5
 x6 | x6 | x6 | x6 | x6 | x6 | x6 | x6 | x6 | x6 | x6 | x6 | x2 D,C, B,,A,, | x6 | x6 | x6 | x6 | %17
 x6 | x6 | x6 | x6 | x6 | x6 | x6 | x6 | x6 | x6 | x6 | x6 | x6 | x6 | x6 | x6 | x6 | x6 | x6 | %36
 x6 | x6 | x6 | C,,,4 D,,2 | E,,,4 E,,2 | x6 | x6 | x6 | x6 | x6 | x6 | C,,,4 D,,2 | E,,,4 E,,2 | %49
 x6 | x6 | x6 |] %52
V:6
 x6 | x6 | x6 | x6 | x6 | x6 | x6 | x6 | x6 | x6 | x6 | x6 | x6 | x6 | x6 | x6 | x6 | x6 | x6 | %19
 x6 | x6 | x6 | x6 | x6 | x6 | x6 | x6 | x6 | x6 | x6 | x6 | x6 | x6 | x6 | x6 | x6 | C,,6 | x6 | %38
 x6 | x6 | x6 | x6 | x6 | x6 | x6 | x6 | x6 | x6 | x6 | x6 | x6 | x6 |] %52

